X: 22
T:High Level Hornpipe
R:Hornpipe
M:2/4
L:1/16
K:Bb
dc|BdFB DFBd|fbdf BdcB|cecB AFAc|agfa gfdc|
BdFB DFBd|fbdf BdcB|GABc d=efg|afcA B2:|
K:F
cB|Afcf Afcf|AFAc fcAF|dfBf dfBf|dBdf bfdB|
egcg egcg|eceg bgec|fefa gfeg|f2fe f2:|
